X:1
T:She Sweetly Dwells Up There
T:She Sweetly Dwells Up There
T:Charles Albert Brock
T:Ellen McAfee, 1913
T:Public Domain Courtesy of the Cyber Hymnal™
T:Public Domain Courtesy of the Cyber Hymnal™
C:Charles Albert Brock
Z:Public Domain
Z:Courtesy of the Cyber Hymnal™
%%score ( 1 2 ) ( 3 4 )
L:1/8
Q:1/4=90
M:3/4
K:E
V:1 treble 
V:2 treble 
V:3 bass 
V:4 bass 
V:1
 [EG]2 | [EG]>[EG] [EG]2 [EG]2 | [DA]>[DA] [DA]2 [DA]2 | [DF]>[DF] [DB]2 [FA]2 | [EG]4 [EB]2 | %5
w: 1.~A|lov- ing wife, a|mo- ther dear, A|sis- ter kind and|sweet, A|
w: 2.~Our|hearts beat hea- vi-|ly with grief, Our|tears un- bid- den|flow To|
w: 3.~And|when death’s sol- emn|hour drew near, With|hope naught could dis-|pel, She|
w: 4.~Her|mem- ory fresh will|ev- er be To|all who knew her|here, For|
 [EB]>[EG] [EB]2 [EG]2 | [EA]>[EA] [Ec]2 [Ec]2 | [EB]>[EB] [EB]2 [E^A]2 | [DB]4 [EB]2 | %9
w: pre- cious daugh- ter,|oh! so fair! Now|rests at Je- sus’|feet! She|
w: part with one we|loved so well, But|she is safe, we|know, For|
w: called her hus- band|to her side, And|told him all was|well; She|
w: she was kind to|ev- ery one, Bright,|smil- ing, full of|cheer; Her|
 [EB]>[EG] E2 [EG]2 | [EB]>[EB] [EB]2 [EG]2 | [DF]>[DF] [CE]2 [DF]2 | [EG]4 [DF]2 | %13
w: left us here to|mourn a- lone In|this sad world of|pain, And|
w: God who do- eth|all things well, Who|know- eth what is|best, Hath|
w: bade him live a|Christ- ian life, And|raise her child- ren|right, And|
w: life was such a|Christ- like one, While|here on earth she|stayed, And|
 [EG]>[EB] [EB]2 [EG]2 | [EA]>[EA] [Ec]2 [Ec]2 | [EB]>[EB] [EG]2 [DF]2 | E4 || %17
w: gained a home of|per- fect peace Where|she will ev- er|reign.|
w: called, “Come home, thou|faith- ful one, And|share e- ter- nal|rest.”|
w: meet her in that|hap- py land, Where|sin can ne- ver|blight.|
w: now she dwells in|that bright home, In|snow- white robes ar-|rayed.|
[Q:1/4=110] [EB]2"^Refrain" | B4 [EB]2 | B4 [EB]2 | [EG]2 [B,E]2 [B,F]2 | [EG]4 [EG]2 | F4 [DF]2 | %23
w: ||||||
w: She|dwells up|there in|man- sions so|fair That|Je- sus|
w: ||||||
w: ||||||
 F4 [EG]2 | [DF]2 [EG]2 [E^A]2 | [DB]4 [EB]2 | B4 [EB]2 | B4 [EB]2 | [EG]2 [DA]2 [EB]2 | [Ec]4 E2 | %30
w: |||||||
w: said He’d|go and pre-|pare, And|some bright|morn, when|earth- life is|o’er, We’ll|
w: |||||||
w: |||||||
 [CE]4 [DF]2 | [EG]4 [EB]2 | [EG]2 [B,E]2 [B,F]2 | [B,E]4 |] %34
w: ||||
w: meet her|where we’ll|part ne- ver-|more.|
w: ||||
w: ||||
V:2
 x2 | x6 | x6 | x6 | x6 | x6 | x6 | x6 | x6 | x2 E2 x2 | x6 | x6 | x6 | x6 | x6 | x6 | E4 || x2 | %18
 (E2 D2) x2 | (E2 D2) x2 | x6 | x6 | (D2 D2) x2 | (D2 D2) x2 | x6 | x6 | (E2 D2) x2 | (E2 D2) x2 | %28
 x6 | x4 E2 | x6 | x6 | x6 | x4 |] %34
V:3
 [E,B,]2 | [E,B,]>[E,B,] [E,B,]2 [E,B,]2 | [F,B,]>[F,B,] [F,B,]2 [F,B,]2 | %3
w: ~|~ ~ ~ ~|~ ~ ~ ~|
 [B,,B,]>[B,,B,] [B,,F,]2 [D,B,]2 | [E,B,]4 [E,G,]2 | [E,G,]>[E,B,] [E,G,]2 [E,B,]2 | %6
w: ~ ~ ~ ~|~ ~|~ ~ ~ ~|
 [A,,C]>[A,,C] [A,,A,]2 [A,,A,]2 | [E,G,]>[E,G,] [E,G,]2 [C,F,]2 | [B,,F,]4 [E,G,]2 | %9
w: ~ ~ ~ ~|~ ~ ~ ~|~ ~|
 [E,G,]>[E,B,] [E,G,]2 [E,B,]2 | [E,G,]>[E,G,] [E,G,]2 [E,B,]2 | [B,,A,]>[B,,A,] [C,G,]2 [B,,B,]2 | %12
w: ~ ~ ~ ~|~ ~ ~ ~|~ ~ ~ ~|
 [E,B,]4 [B,,B,]2 | [E,B,]>[E,G,] [E,G,]2 [E,B,]2 | [A,,C]>[A,,C] [A,,A,]2 [A,,A,]2 | %15
w: ~ ~|~ ~ ~ ~|~ ~ ~ ~|
 [B,,G,]>[B,,G,] [B,,B,]2 [B,,A,]2 | [E,G,]4 || [E,G,]2 | [E,G,]2 [B,,F,]2 [E,G,]2 | %19
w: ~ ~ ~ ~|~|So|sweet- ly she|
 [E,G,]2 [B,,F,]2 [E,G,]2 | [E,B,]2 [E,G,]2 [E,A,]2 | [E,B,]4 [E,B,]2 | %22
w: dwells there ~|~ ~ ~|~ ~|
 [B,,B,]2 [B,,B,]2 [B,,B,]2 | [B,,B,]2 [B,,B,]2 [E,B,]2 | [B,,B,]2 [E,B,]2 [C,F,]2 | %25
w: Je- sus has|said He would|~ ~ ~|
 [B,,F,]4 [E,G,]2 | [E,G,]2 [B,,F,]2 [E,G,]2 | [E,G,]2 [B,,F,]2 [E,G,]2 | [E,B,]2 [F,B,]2 [G,B,]2 | %29
w: ~ ~|there we some|bright morn, *||
 A,4 [C,G,]2 | [C,G,]4 [B,,B,]2 | [E,B,]4 [E,G,]2 | [B,,B,]2 [B,,G,]2 [B,,A,]2 | [E,G,]4 |] %34
w: |||||
V:4
 x2 | x6 | x6 | x6 | x6 | x6 | x6 | x6 | x6 | x6 | x6 | x6 | x6 | x6 | x6 | x6 | x4 || x2 | x6 | %19
 x6 | x6 | x6 | x6 | x6 | x6 | x6 | x6 | x6 | x6 | A,4 x2 | x6 | x6 | x6 | x4 |] %34

